app/icons/letter-e.svg

<?xml version="1.0" encoding="UTF-8" standalone="no"?>
<svg
   width="16"
   height="16"
   fill="none"
   viewBox="0 0 16 16"
   version="1.1"
   id="svg2"
   xml:space="preserve"
   xmlns="http://www.w3.org/2000/svg"
   xmlns:svg="http://www.w3.org/2000/svg"><defs
     id="defs1"><rect
       id="path_0"
       width="16"
       height="16"
       x="0"
       y="0" /></defs><g
     style="fill:none"
     id="g3"
     transform="matrix(0.02901786,0,0,0.02901786,0.57142848,0.57142848)"><path
       fill-rule="evenodd"
       clip-rule="evenodd"
       d="M 128,32 C 74.9807,32 32,74.9807 32,128 v 256 c 0,53.019 42.9807,96 96,96 h 256 c 53.019,0 96,-42.981 96,-96 V 128 C 480,74.9807 437.019,32 384,32 Z m 40,76 c -19.882,0 -36,16.118 -36,36 v 224 c 0,19.882 16.118,36 36,36 h 192 c 11.046,0 20,-8.954 20,-20 0,-11.046 -8.954,-20 -20,-20 H 172 v -88 h 164 c 11.046,0 20,-8.954 20,-20 0,-11.046 -8.954,-20 -20,-20 H 172 v -88 h 188 c 11.046,0 20,-8.954 20,-20 0,-11.046 -8.954,-20 -20,-20 z"
       fill="#000000"
       id="path1" /></g></svg>

<?xml version="1.0" encoding="UTF-8" standalone="no"?> <svg width="512" height="512" viewBox="0 0 512 512" fill="none" xmlns="http://www.w3.org/2000/svg">
<path fill-rule="evenodd" clip-rule="evenodd" d="M128 32C74.9807 32 32 74.9807 32 128V384C32 437.019 74.9807 480 128 480H384C437.019 480 480 437.019 480 384V128C480 74.9807 437.019 32 384 32H128ZM168 108C148.118 108 132 124.118 132 144V368C132 387.882 148.118 404 168 404H360C371.046 404 380 395.046 380 384C380 372.954 371.046 364 360 364H172V276H336C347.046 276 356 267.046 356 256C356 244.954 347.046 236 336 236H172V148H360C371.046 148 380 139.046 380 128C380 116.954 371.046 108 360 108H168Z" fill="black"/>
</svg>
